styles/6/Numix/64/places/blue-folder-recent.svg

<?xml version="1.0" encoding="UTF-8" standalone="no"?>
<!-- Created with Inkscape (http://www.inkscape.org/) -->

<svg
   xmlns:dc="http://purl.org/dc/elements/1.1/"
   xmlns:cc="http://creativecommons.org/ns#"
   xmlns:rdf="http://www.w3.org/1999/02/22-rdf-syntax-ns#"
   xmlns:svg="http://www.w3.org/2000/svg"
   xmlns="http://www.w3.org/2000/svg"
   xmlns:xlink="http://www.w3.org/1999/xlink"
   xmlns:sodipodi="http://sodipodi.sourceforge.net/DTD/sodipodi-0.dtd"
   xmlns:inkscape="http://www.inkscape.org/namespaces/inkscape"
   width="64"
   height="64"
   id="svg2"
   version="1.1"
   inkscape:version="0.91 r"
   sodipodi:docname="blue-folder-recent.svg"
   inkscape:export-filename="/media/Data/Main/Visuals/Icons/Numix/Desktop/repos/numix-wiki/Gjorgi/Numix-folders/48/New/folder-144.png"
   inkscape:export-xdpi="270"
   inkscape:export-ydpi="270">
  <defs
     id="defs4">
    <linearGradient
       inkscape:collect="always"
       id="linearGradient3958">
      <stop
         style="stop-color:#000000;stop-opacity:1;"
         offset="0"
         id="stop3960" />
      <stop
         style="stop-color:#000000;stop-opacity:0;"
         offset="1"
         id="stop3962" />
    </linearGradient>
    <radialGradient
       inkscape:collect="always"
       xlink:href="#linearGradient3958"
       id="radialGradient3964"
       cx="32.5"
       cy="56.5"
       fx="32.5"
       fy="56.5"
       r="33.5"
       gradientTransform="matrix(1,0,0,0.10447761,0,50.597015)"
       gradientUnits="userSpaceOnUse" />
  </defs>
  <sodipodi:namedview
     id="base"
     pagecolor="#ffffff"
     bordercolor="#666666"
     borderopacity="1.0"
     inkscape:pageopacity="0.0"
     inkscape:pageshadow="2"
     inkscape:zoom="19.68"
     inkscape:cx="9.7552784"
     inkscape:cy="28.609116"
     inkscape:document-units="px"
     inkscape:current-layer="layer1"
     showgrid="true"
     inkscape:window-width="1920"
     inkscape:window-height="1052"
     inkscape:window-x="0"
     inkscape:window-y="28"
     inkscape:window-maximized="1"
     showguides="true"
     inkscape:guide-bbox="true">
    <inkscape:grid
       type="xygrid"
       id="grid2985"
       empspacing="5"
       visible="true"
       enabled="true"
       snapvisiblegridlinesonly="true" />
  </sodipodi:namedview>
  <metadata
     id="metadata7">
    <rdf:RDF>
      <cc:Work
         rdf:about="">
        <dc:format>image/svg+xml</dc:format>
        <dc:type
           rdf:resource="http://purl.org/dc/dcmitype/StillImage" />
        <dc:title />
      </cc:Work>
    </rdf:RDF>
  </metadata>
  <g
     inkscape:label="Layer 1"
     inkscape:groupmode="layer"
     id="layer1"
     transform="translate(0,-988.3622)">
    <path
       sodipodi:type="arc"
       style="opacity:0.6;fill:url(#radialGradient3964);fill-opacity:1;stroke:none"
       id="path3956"
       sodipodi:cx="32.5"
       sodipodi:cy="56.5"
       sodipodi:rx="33.5"
       sodipodi:ry="3.5"
       d="M 66,56.5 C 66,58.432997 51.001539,60 32.5,60 13.998461,60 -1,58.432997 -1,56.5 -1,54.567003 13.998461,53 32.5,53 51.001539,53 66,54.567003 66,56.5 z"
       transform="matrix(1.1343284,0,0,1.1428571,-4.8656716,979.79077)" />
    <path
       sodipodi:nodetypes="ccccccccc"
       inkscape:connector-curvature="0"
       id="path3029"
       d="m 0,997.42103 0,42.82347 64,0 0,-21.4117 -3.047619,-18.353 L 37,1000.3622 l -3,-6 -30.952381,0 C 1.52381,994.3622 0,995.89161 0,997.42103 z"
       style="fill:#1976d2;fill-opacity:1;stroke:none" />
    <rect
       style="fill:#fffdf0;fill-opacity:1;stroke:none"
       id="rect3799"
       width="31.571428"
       height="11.882284"
       x="5"
       y="1002.3622" />
    <path
       style="fill:#000000;fill-opacity:1;stroke:none;opacity:0.03"
       d="M 3.0625,6 C 1.538691,6 0,7.53308 0,9.0625 l 0,2 C 0,9.53308 1.538691,8 3.0625,8 L 33,8 36,14 60.9375,14.125 64,32.46875 l 0,-2 L 60.9375,12.125 37,12 34,6 z"
       transform="translate(0,988.3622)"
       id="path3790"
       inkscape:connector-curvature="0"
       sodipodi:nodetypes="sscsccccccccs" />
    <path
       style="fill:#42a5f5;fill-opacity:1;stroke:none"
       d="m 64,1003.5387 0,42.8235 -64,0 0,-40 30,0 3,-6 27.952381,0.1176 c 1.523809,0 3.047619,1.5295 3.047619,3.0589 z"
       id="rect2987"
       inkscape:connector-curvature="0"
       sodipodi:nodetypes="cccccccc" />
    <path
       sodipodi:nodetypes="ccccc"
       id="path3794"
       d="m 0,1044.3622 0,2 64,0 0,-2 z"
       style="opacity:0.15;fill:#000000;fill-opacity:1;stroke:none"
       inkscape:connector-curvature="0" />
    <path
       style="fill:#000000;fill-opacity:1;stroke:none;opacity:0.03"
       d="m 33,12 -3,6 -30,0 0,2 31,0 3,-6 26.9375,0.125 c 1.523809,0 3.0625,1.5331 3.0625,3.0625 l 0,-2 C 64,13.6581 62.461309,12.125 60.9375,12.125 z"
       id="path3015"
       inkscape:connector-curvature="0"
       sodipodi:nodetypes="ccccccccscc"
       transform="translate(0,988.3622)" />
    <g
       id="g4034"
       style="opacity:1.0">
      <path
         id="path4017"
         transform="translate(0,988.3622)"
         d="M 32 24 C 26.816127 24 22.295011 26.812856 19.875 31 L 23.5 31 C 25.517562 28.55528 28.582738 27 32 27 C 38.075132 27 43 31.924868 43 38 C 43 44.075132 38.075132 49 32 49 C 25.924868 49 21 44.075132 21 38 C 21 37.662363 21.032724 37.329883 21.0625 37 L 18.03125 37 C 18.007972 37.330072 18 37.664005 18 38 C 18 45.731986 24.268014 52 32 52 C 39.731986 52 46 45.731986 46 38 C 46 30.268014 39.731986 24 32 24 z "
         style="opacity:1;fill:#2a74b9;fill-opacity:1;stroke:none" />
      <path
         sodipodi:nodetypes="cccc"
         inkscape:connector-curvature="0"
         id="path4025"
         d="m 18,1012.3622 0,10 10,0 z"
         style="fill:#2a74b9;fill-opacity:1;stroke:none" />
      <path
         id="path4105"
         d="m 31.812825,1017.2996 a 2.0002,2.0002 0 0 0 -0.25,0.062 2.0002,2.0002 0 0 0 -1.5625,2 l 0,7.375 a 2.0002,2.0002 0 0 0 0,0.188 2.0002,2.0002 0 0 0 0.25,1.5 2.0002,2.0002 0 0 0 0.0625,0.062 2.0002,2.0002 0 0 0 0.0625,0.124 2.0002,2.0002 0 0 0 0.0625,0.062 2.0002,2.0002 0 0 0 0.0625,0.062 2.0002,2.0002 0 0 0 0.0625,0.062 2.0002,2.0002 0 0 0 0.0625,0.062 2.0002,2.0002 0 0 0 0.125,0.062 2.0002,2.0002 0 0 0 0.0625,0.062 2.0002,2.0002 0 0 0 0.0625,0.062 2.0002,2.0002 0 0 0 0.125,0.062 2.0002,2.0002 0 0 0 0.25,0.124 l 4.937497,2.875 a 2.0155644,2.0155644 0 1 0 2,-3.5 l -4.187499,-2.4376 0,-6.8124 a 2.0002,2.0002 0 0 0 -2.187498,-2.0626 z"
         style="line-height:normal;opacity:1;color:#000000;fill:#2a74b9;fill-opacity:1"
         inkscape:connector-curvature="0" />
    </g>
  </g>
</svg>

<!-- Created with Inkscape (http://www.inkscape.org/) -->
<svg xmlns="http://www.w3.org/2000/svg" viewBox="0 0 64 64">
 <defs>
  <radialGradient id="radialGradient3964" cx="32.5" cy="56.5" r="33.5" gradientTransform="matrix(1,0,0,0.10447761,0,50.597015)" gradientUnits="userSpaceOnUse">
   <stop style="stop-color:#000;stop-opacity:1"/>
   <stop offset="1" style="stop-color:#000;stop-opacity:0"/>
  </radialGradient>
 </defs>
 <g transform="translate(0,-988.3622)">
  <path d="m 66 56.5 c 0 1.933 -14.998 3.5 -33.5 3.5 -18.502 0 -33.5 -1.567 -33.5 -3.5 0 -1.933 14.998 -3.5 33.5 -3.5 18.502 0 33.5 1.567 33.5 3.5 z" transform="matrix(1.1343284,0,0,1.1428571,-4.8656716,979.79077)" style="fill:url(#radialGradient3964);opacity:0.6;fill-opacity:1;stroke:none"/>
  <path d="m 0 997.42 0 42.823 64 0 0 -21.412 -3.048 -18.353 l -23.952 -0.118 l -3 -6 -30.952 0 c -1.524 0 -3.048 1.529 -3.048 3.059 z" style="fill:#1976d2;fill-opacity:1;stroke:none"/>
  <rect width="31.571" height="11.882" x="5" y="1002.36" style="fill:#fffdf0;fill-opacity:1;stroke:none"/>
  <path d="M 3.0625,6 C 1.538691,6 0,7.53308 0,9.0625 l 0,2 C 0,9.53308 1.538691,8 3.0625,8 L 33,8 36,14 60.9375,14.125 64,32.46875 l 0,-2 L 60.9375,12.125 37,12 34,6 z" transform="translate(0,988.3622)" style="fill:#000;opacity:0.03;fill-opacity:1;stroke:none"/>
  <path d="m 64 1003.54 0 42.824 -64 0 0 -40 30 0 3 -6 27.952 0.118 c 1.524 0 3.048 1.529 3.048 3.059 z" style="fill:#42a5f5;fill-opacity:1;stroke:none"/>
  <path d="m 0 1044.36 0 2 64 0 0 -2 z" style="fill:#000;opacity:0.15;fill-opacity:1;stroke:none"/>
  <path d="m 33 12 -3 6 -30 0 0 2 31 0 3 -6 26.938 0.125 c 1.524 0 3.063 1.533 3.063 3.063 l 0 -2 c 0 -1.529 -1.539 -3.063 -3.063 -3.063 z" transform="translate(0,988.3622)" style="fill:#000;opacity:0.03;fill-opacity:1;stroke:none"/>
  <g style="opacity:1">
   <path transform="translate(0,988.3622)" d="m 32 24 c -5.184 0 -9.705 2.813 -12.12 7 l 3.625 0 c 2.02 -2.445 5.083 -4 8.5 -4 c 6.075 0 11 4.925 11 11 c 0 6.075 -4.925 11 -11 11 c -6.075 0 -11 -4.925 -11 -11 c 0 -0.338 0.033 -0.67 0.063 -1 l -3.03 0 c -0.023 0.33 -0.031 0.664 -0.031 1 c 0 7.732 6.268 14 14 14 c 7.732 0 14 -6.268 14 -14 c 0 -7.732 -6.268 -14 -14 -14 z" style="fill:#2a74b9;opacity:1;fill-opacity:1;stroke:none"/>
   <path d="m 18 1012.36 0 10 10 0 z" style="fill:#2a74b9;fill-opacity:1;stroke:none"/>
   <path d="m 31.813 1017.3 a 2 2 0 0 0 -0.25 0.062 2 2 0 0 0 -1.563 2 l 0 7.375 a 2 2 0 0 0 0 0.188 2 2 0 0 0 0.25 1.5 2 2 0 0 0 0.063 0.062 2 2 0 0 0 0.063 0.124 2 2 0 0 0 0.063 0.062 2 2 0 0 0 0.063 0.062 2 2 0 0 0 0.063 0.062 2 2 0 0 0 0.063 0.062 2 2 0 0 0 0.125 0.062 2 2 0 0 0 0.063 0.062 2 2 0 0 0 0.063 0.062 2 2 0 0 0 0.125 0.062 2 2 0 0 0 0.25 0.124 l 4.937 2.875 a 2.02 2.02 0 1 0 2 -3.5 l -4.187 -2.438 0 -6.812 a 2 2 0 0 0 -2.187 -2.063 z" style="fill:#2a74b9;opacity:1;fill-opacity:1;color:#000"/>
  </g>
 </g>
</svg>
